X: 1
T: Mr Dow
M: 4/4
L: 1/8
R: reel
K: Amaj
f|:edcB AE E/E/E|AEFD EA, A,/A,/A,|[1edcB AE E/E/E|
FAGB A3f:|[2B,CDE FDGE|FAGB A3g||
|:aecA defa|bgaf gebg|[1aecA dfBd|
ceGB A3g:|[2aeca fagb|aefg a3|]
